X:12059
T:Northern Frisk, The
B:Walsh
M:3/2
L:1/8
N:
K:C
A2 e4 A2  ecBA| GABc d2 G2 B2 AG| A2 e4 A2 ecBA| E2 A4 c2 B2 A2::\
edcB ABcd ecBA| GABc dcBA BcdB| AecA ceac| BA^G^F| E2 A4 c2 B2 A2::\
e2 a2 d2 g2 c2 f2| BcdB GABG BcdB| ea^gb edcB ABcA| G2 A4 c2 B2 A2::\
e2 e2 e2 e2 e4| dcBA G2 d2 BcdB| eaec AcBA ^GAB^G| E2 A4 c2 B2 A2:|
